X:1
T:Scotland the Brave
M:4/4
L:1/4
K:C
 C2 C3/2 D/2| E C E G| c2 e3/2 d/2| c G E C| F2 A F| E G F E| D2 D3/2 E/2|\
 D4| C2 C3/2 D/2| E C E G| c2 e3/2 d/2| c G E C| F2 A F| E G E C| D2 C3/2 B,/2|\
 C4| d2 d3/2 d/2| d B G2| c2 e3/2 d/2| c G E2| F2 A F| E- G G E| D2 D3/2 E/2|\
 D4| C2 C3/2 D/2| E C E G| c2 e3/2 d/2| c G E C| F2 A F| E G E C| D2 C3/2 B,/2|\
 C4|

